data/sheikah/exclam.svg

<!-- Generated by IcoMoon.io -->
<svg version="1.1" xmlns="http://www.w3.org/2000/svg" width="1024" height="1024" viewBox="0 0 1024 1024">
<title></title>
<g id="icomoon-ignore">
</g>
<path d="M273 870.5l-119.5-119.5v-478l119.5-119.5h179.5l119.5 119.5v478h179v-597.5l119.5 119.5v478l-119.5 119.5h-179l-119.5-119.5v-478h-179.5v597.5z"></path>
</svg>

<svg xmlns="http://www.w3.org/2000/svg" width="1024" height="1024" viewBox="0 0 1024 1024">
  <title/>
  <path d="M273 870.5 153.5 751V273L273 153.5h179.5L572 273v478h179V153.5L870.5 273v478L751 870.5H572L452.5 751V273H273z"/>
</svg>
